assets/icons/18px/outline/full-screen-18px.svg

<svg fill="none" height="18" width="18" xmlns="http://www.w3.org/2000/svg" xmlns:xlink="http://www.w3.org/1999/xlink"><clipPath id="a"><path d="m0 0h18v18h-18z"/></clipPath><g clip-path="url(#a)"><path d="m2.5 11.625v1.875c0 .943 0 1.414.293 1.707s.764.293 1.707.293h1.875m-3.875-9.125v-1.875c0-.943 0-1.414.293-1.707s.764-.293 1.707-.293h1.875m9.125 3.875v-1.875c0-.943 0-1.414-.293-1.707s-.764-.293-1.707-.293h-1.875m3.875 9.125v1.875c0 .943 0 1.414-.293 1.707s-.764.293-1.707.293h-1.875" stroke="#fff" stroke-linecap="round" stroke-linejoin="round"/></g></svg>

<svg fill="none" height="18" width="18" xmlns="http://www.w3.org/2000/svg"><clipPath id="a"><path d="M0 0h18v18H0z"/></clipPath><g clip-path="url(#a)"><path d="M2.5 11.625V13.5c0 .943 0 1.414.293 1.707s.764.293 1.707.293h1.875M2.5 6.375V4.5c0-.943 0-1.414.293-1.707S3.557 2.5 4.5 2.5h1.875M15.5 6.375V4.5c0-.943 0-1.414-.293-1.707S14.443 2.5 13.5 2.5h-1.875m3.875 9.125V13.5c0 .943 0 1.414-.293 1.707s-.764.293-1.707.293h-1.875" stroke="currentColor" stroke-linecap="round" stroke-linejoin="round"/></g></svg>
